svgs/mi_music.svg

<svg width="192" height="192" viewBox="0 0 192 192" fill="none" xmlns="http://www.w3.org/2000/svg"><path d="m102 22 2.523-5.444A6 6 0 0 0 96 22h6Zm49.868 63.65a6 6 0 1 0 8.264 8.7l-8.264-8.7ZM96 22v112h12V22H96Zm3.477 5.444c20.118 9.323 37.8 21.15 47.911 32.54 5.078 5.72 7.786 10.816 8.452 14.992.599 3.753-.349 7.232-3.972 10.674l8.264 8.7c6.377-6.058 8.804-13.454 7.559-21.264-1.178-7.386-5.532-14.54-11.329-21.07-11.639-13.11-30.957-25.783-51.839-35.46l-5.046 10.888ZM96 134c0 16.569-13.431 30-30 30v12c23.196 0 42-18.804 42-42H96Zm-30 30c-16.569 0-30-13.431-30-30H24c0 23.196 18.804 42 42 42v-12Zm-30-30c0-16.569 13.431-30 30-30V92c-23.196 0-42 18.804-42 42h12Zm30-30c16.569 0 30 13.431 30 30h12c0-23.196-18.804-42-42-42v12Z" fill="#000"/></svg>

<?xml version="1.0" encoding="UTF-8" standalone="no"?><svg xmlns:android="http://schemas.android.com/apk/res/android" height="192" width="192" xmlns="http://www.w3.org/2000/svg">
  <path d="M102,22L104.52,16.56C102.67,15.7 100.5,15.84 98.77,16.94C97.04,18.05 96,19.95 96,22H102ZM151.87,85.65C149.46,87.93 149.37,91.73 151.65,94.13C153.93,96.53 157.73,96.63 160.13,94.35L151.87,85.65ZM96,22V134H108V22H96ZM99.48,27.44C119.6,36.77 137.28,48.59 147.39,59.98C152.47,65.7 155.17,70.8 155.84,74.98C156.44,78.73 155.49,82.21 151.87,85.65L160.13,94.35C166.51,88.29 168.94,80.9 167.69,73.09C166.51,65.7 162.16,58.55 156.36,52.02C144.72,38.91 125.4,26.23 104.52,16.56L99.48,27.44ZM96,134C96,150.57 82.57,164 66,164V176C89.2,176 108,157.2 108,134H96ZM66,164C49.43,164 36,150.57 36,134H24C24,157.2 42.8,176 66,176V164ZM36,134C36,117.43 49.43,104 66,104V92C42.8,92 24,110.8 24,134H36ZM66,104C82.57,104 96,117.43 96,134H108C108,110.8 89.2,92 66,92V104Z" fill="#000000"/>
</svg>
